X:280
T: GOTT DEINE KINDLEIN
N: B0758
O: Europa, Mitteleuropa, Deutschland
R: religioes
M: 4/4
L: 1/8
K: G
D2 | G2A2B2dc | B4A2
Bc | d2G2F2G2 | A4z2
AB | c2B2A2Bc | d2c2B2
e2 | d2GAB2A2 | G4z2

